X: 13
T:Old Woman Tossed up in a Blanket, Ilmington
M:6/8
L:1/8
A:Ilmington
P:A(AB2)4A
K:G
P:A
|:D|GAB cBc|d2c BAG|cBA d2c|BGG G2:|
P:B
d|efg efg|efg afd|d2d def|g2d B2A|
GAB cBc|d2c BAG|cBA d2c|BGG G2:|
